resources/haticons/SVG/imagesearch_roller.svg

<!-- Generated by IcoMoon.io -->
<svg version="1.1" xmlns="http://www.w3.org/2000/svg" width="24" height="24" viewBox="0 0 24 24">
<title>imagesearch_roller</title>
<path d="M20.016 2.016v6h-14.016v-2.016h-2.016v3.984h10.031v5.016h1.969v8.016h-6v-8.016h2.016v-3h-9.984v-8.016h3.984v-1.969h14.016z"></path>
</svg>

<svg xmlns="http://www.w3.org/2000/svg" width="24" height="24"><path d="M20.016 2.016v6H6V6H3.984v3.984h10.031V15h1.969v8.016h-6V15H12v-3H2.016V3.984H6V2.015h14.016z"/></svg>
